dist/img/logo/guven.svg

<svg width="60" height="60" viewBox="0 0 60 60" fill="none" xmlns="http://www.w3.org/2000/svg">
<g clip-path="url(#clip0_52_1039)">
<path d="M59.2308 30.0001C59.2308 13.8563 46.1438 0.769287 30.0001 0.769287C13.8563 0.769287 0.769287 13.8563 0.769287 30.0001C0.769287 46.1438 13.8563 59.2308 30.0001 59.2308C46.1438 59.2308 59.2308 46.1438 59.2308 30.0001Z" stroke="#3271B2" stroke-width="2"/>
<path d="M32.6077 46.0692L31.2616 38.5154L32.4616 36.7769L31.3616 36.0154L29.8462 38.2077L31.2539 46.0692H32.6077Z" fill="#E0027A"/>
<path d="M26.6001 46.0538H27.9693L29.3616 38.2077L27.8463 36.0154L26.7463 36.7769L27.9463 38.5154L26.6001 46.0538Z" fill="#E0027A"/>
<path d="M41.9076 36.3614L33.5614 32.5384V30.1537L33.9153 29.8845C34.9614 28.8768 35.646 27.4845 35.7845 26.023C36.7383 25.9768 37.5768 25.346 37.8845 24.423C38.1999 23.4999 37.9307 22.4768 37.1999 21.846L37.2076 20.623C37.2076 18.646 36.4999 16.7307 35.2153 15.2537C33.8999 13.7537 32.1614 12.9307 30.323 12.9307C27.5691 12.9307 25.4691 14.146 24.3537 16.3614C22.9999 16.5845 22.0076 17.7691 21.9999 19.1614V21.846C21.2768 22.4845 21.0076 23.5076 21.323 24.4307C21.6383 25.3537 22.4768 25.9845 23.4383 26.023C23.5845 27.3614 24.1768 28.6076 25.1076 29.5691L25.646 30.0153V32.5153L17.2999 36.3384L14.9922 46.7768H44.223L41.9076 36.3614ZM33.846 34.1307L32.823 36.8384L31.0614 34.5076L32.746 33.623L33.846 34.1307ZM29.8999 33.6153H29.2922L26.9537 32.3845V31.0076C27.7691 31.4999 28.7076 31.7614 29.6614 31.7614C30.5691 31.7691 31.4614 31.5307 32.2537 31.0691V32.3845L29.8999 33.6153ZM36.7076 23.646C36.7076 24.1691 36.323 24.6153 35.8153 24.6845V22.6076C36.323 22.6768 36.7076 23.123 36.7076 23.646ZM23.3922 24.6845C22.8845 24.6153 22.4999 24.1691 22.4999 23.646C22.4999 23.123 22.8845 22.6768 23.3922 22.6076V24.6845ZM23.3076 20.8153V19.1614C23.3076 18.3307 23.9691 17.6614 24.7845 17.6614H25.2076L25.3768 17.2614C26.2153 15.323 27.9768 14.2614 30.323 14.2614C33.346 14.2614 35.8999 17.1768 35.8999 20.623V21.1076C34.7383 21.1307 31.9999 21.0999 30.446 20.3537C29.1999 19.746 28.0614 18.9307 27.0845 17.946L26.446 17.2614L26.023 18.0922C25.6768 18.7768 24.5922 20.4076 23.3076 20.8153ZM24.6999 25.3076V21.5999C25.623 20.9922 26.323 20.0845 26.746 19.446C27.6922 20.2845 28.746 20.9922 29.8845 21.5537C31.1845 22.1768 33.0768 22.3768 34.5076 22.4307V25.4384C34.5076 26.7307 33.9922 27.9691 33.0768 28.8614L31.9999 29.6614C31.323 30.1691 30.4999 30.4384 29.6614 30.4384C28.7614 30.4307 27.8845 30.123 27.1768 29.5537L26.0076 28.6076C25.1691 27.723 24.6922 26.5384 24.6999 25.3076ZM26.3768 33.6384L28.1153 34.546L26.3845 36.8461L25.3383 34.1153L26.3768 33.6384ZM18.4306 37.2768L24.146 34.6614L26.0076 39.523L29.4383 34.9691H29.7691L33.1999 39.523L35.0383 34.6691L40.7768 37.2999L42.5845 45.4461H38.5922V41.4153H37.2922V45.4461H21.9153V41.4153H20.6076V45.4461H16.623L18.4306 37.2768Z" fill="#00AEEF"/>
</g>
<defs>
<clipPath id="clip0_52_1039">
<rect width="60" height="60" fill="white"/>
</clipPath>
</defs>
</svg>

<svg width="60" height="60" viewBox="0 0 60 60" fill="none" xmlns="http://www.w3.org/2000/svg"><g clip-path="url(#clip0_52_1039)"><path d="M59.23 30C59.23 13.856 46.145.77 30 .77S.77 13.855.77 30 13.855 59.23 30 59.23 59.23 46.145 59.23 30z" stroke="#3271B2" stroke-width="2"/><path d="M32.608 46.07l-1.346-7.555 1.2-1.738-1.1-.762-1.516 2.193 1.408 7.861h1.354zm-6.008-.016h1.37l1.392-7.846-1.516-2.193-1.1.762 1.2 1.738-1.346 7.539z" fill="#E0027A"/><path d="M41.908 36.361l-8.347-3.823v-2.384l.354-.27a6.237 6.237 0 001.87-3.861 2.338 2.338 0 002.1-1.6 2.385 2.385 0 00-.685-2.577l.008-1.223a8.19 8.19 0 00-1.993-5.37c-1.315-1.5-3.054-2.322-4.892-2.322-2.754 0-4.854 1.215-5.97 3.43-1.353.223-2.345 1.408-2.353 2.8v2.685a2.412 2.412 0 00-.677 2.585 2.339 2.339 0 002.115 1.592 6.046 6.046 0 001.67 3.546l.538.446v2.5L17.3 36.338l-2.308 10.439h29.231L41.908 36.36zm-8.062-2.23l-1.023 2.707-1.762-2.33 1.685-.885 1.1.508zm-3.946-.516h-.608l-2.338-1.23v-1.377a5.245 5.245 0 002.707.753c.908.008 1.8-.23 2.593-.692v1.316l-2.354 1.23zm6.808-9.969c0 .523-.385.97-.893 1.038v-2.076c.508.069.893.515.893 1.038zm-13.316 1.038a1.045 1.045 0 01-.892-1.038c0-.523.384-.97.892-1.038v2.076zm-.084-3.869v-1.654c0-.83.661-1.5 1.477-1.5h.423l.169-.4c.838-1.938 2.6-3 4.946-3 3.023 0 5.577 2.916 5.577 6.362v.485c-1.162.023-3.9-.008-5.454-.754a12.389 12.389 0 01-3.362-2.408l-.638-.685-.423.831c-.346.685-1.43 2.316-2.715 2.723zm1.392 4.493V21.6c.923-.608 1.623-1.516 2.046-2.154.946.838 2 1.546 3.139 2.108 1.3.623 3.192.823 4.623.877v3.007a4.78 4.78 0 01-1.431 3.423l-1.077.8a3.9 3.9 0 01-2.339.777 4.018 4.018 0 01-2.484-.884l-1.17-.946a4.765 4.765 0 01-1.307-3.3zm1.677 8.33l1.738.908-1.73 2.3-1.047-2.73 1.039-.478zm-7.946 3.639l5.715-2.616 1.862 4.862 3.43-4.554h.331l3.43 4.554 1.84-4.854 5.738 2.63 1.807 8.147h-3.992v-4.03h-1.3v4.03H21.915v-4.03h-1.307v4.03h-3.985l1.808-8.17z" fill="#00AEEF"/></g><defs><clipPath id="clip0_52_1039"><rect width="60" height="60" fill="#fff"/></clipPath></defs></svg>
